dist/svgs/crypto-icons/icons/icn.svg

<?xml version="1.0" encoding="UTF-8" standalone="yes"?>
<svg xmlns="http://www.w3.org/2000/svg" xmlns:xlink="http://www.w3.org/1999/xlink" width="512px" height="512px" viewBox="0 0 384 384" version="1.1">
  <g id="surface1">
    <path style=" stroke:none;fill-rule:nonzero;fill:rgb(0%,0%,0%);fill-opacity:1;" d="M 306.929688 0 L 364.480469 0 L 364.480469 383.660156 L 306.929688 383.660156 Z M 211.015625 191.832031 L 268.5625 191.832031 L 268.5625 383.660156 L 211.015625 383.660156 Z M 115.097656 95.914062 L 172.648438 95.914062 L 172.648438 383.660156 L 115.097656 383.660156 Z M 19.183594 287.746094 L 76.730469 287.746094 L 76.730469 383.660156 L 19.183594 383.660156 Z M 19.183594 287.746094 "/>
  </g>
</svg>

<svg xmlns="http://www.w3.org/2000/svg" viewBox="0 0 384 384"><path d="M306.93 0h57.55v383.66h-57.55zm-95.914 191.832h57.547V383.66h-57.547zm-95.918-95.918h57.55V383.66h-57.55zM19.184 287.746H76.73v95.914H19.184zm0 0"/></svg>
